public/assets/icons/file-txt.svg

<svg
      width="40"
      height="40"
      viewBox="0 0 40 40"
      fill="none"
      xmlns="http://www.w3.org/2000/svg"
    >
      <path
        fillRule="evenodd"
        clipRule="evenodd"
        d="M13.1702 0H26.7146L38.6748 11.9602V34.9274C38.6748 37.7163 36.3912 40 33.6023 40H13.1702C10.3813 40 8.09766 37.7163 8.09766 34.9274V5.07258C8.09766 2.28367 10.3813 0 13.1702 0Z"
        fill="#7B8E9D"
      />
      <path
        fillRule="evenodd"
        clipRule="evenodd"
        d="M26.7148 0L38.6751 11.9602H28.0064C27.2955 11.9602 26.7148 11.3796 26.7148 10.6687V0Z"
        fill="#62727E"
      />
      <path
        fillRule="evenodd"
        clipRule="evenodd"
        d="M2.4375 17.0328H29.9858C30.5984 17.0328 31.0991 17.5334 31.0991 18.1461V28.2523C31.0991 28.865 30.5984 29.3656 29.9858 29.3656H2.4375C1.82484 29.3656 1.32422 28.865 1.32422 28.2523V18.1461C1.32422 17.5334 1.82492 17.0328 2.4375 17.0328Z"
        fill="#62727E"
      />
      <path
        d="M17.8454 20.0616L15.961 23.1981L17.8454 26.3345C18.0234 26.6307 17.9275 27.0151 17.6313 27.193C17.5305 27.2535 17.4194 27.2824 17.3098 27.2824C17.0973 27.2824 16.8902 27.1742 16.7729 26.9789L15.2312 24.4128L13.6896 26.9789C13.5723 27.1742 13.3652 27.2824 13.1527 27.2824C13.0431 27.2824 12.932 27.2535 12.8312 27.193C12.535 27.0151 12.4391 26.6307 12.6171 26.3345L14.5015 23.1981L12.6171 20.0616C12.4391 19.7654 12.535 19.381 12.8312 19.2031C13.1273 19.0252 13.5117 19.1211 13.6896 19.4172L15.2312 21.9833L16.7729 19.4172C16.9508 19.121 17.3351 19.0252 17.6313 19.2031C17.9275 19.381 18.0234 19.7654 17.8454 20.0616ZM10.5198 19.1138H6.36391C6.01836 19.1138 5.73828 19.3938 5.73828 19.7394C5.73828 20.0849 6.01836 20.365 6.36391 20.365H7.81625V26.6568C7.81625 27.0024 8.09633 27.2824 8.44187 27.2824C8.78742 27.2824 9.0675 27.0024 9.0675 26.6568V20.365H10.5198C10.8654 20.365 11.1455 20.0849 11.1455 19.7394C11.1455 19.3938 10.8653 19.1138 10.5198 19.1138ZM24.0985 19.1138H19.9426C19.597 19.1138 19.317 19.3938 19.317 19.7394C19.317 20.0849 19.597 20.365 19.9426 20.365H21.3949V26.6568C21.3949 27.0024 21.675 27.2824 22.0205 27.2824C22.3661 27.2824 22.6462 27.0024 22.6462 26.6568V20.365H24.0985C24.4441 20.365 24.7241 20.0849 24.7241 19.7394C24.7241 19.3938 24.4441 19.1138 24.0985 19.1138Z"
        fill="white"
      />
    </svg>

<svg xmlns="http://www.w3.org/2000/svg" width="40" height="40" fill="none"><path fill="#7B8E9D" d="M13.17 0h13.545l11.96 11.96v22.967c0 2.79-2.284 5.073-5.073 5.073H13.17c-2.789 0-5.072-2.284-5.072-5.073V5.073C8.098 2.283 10.38 0 13.17 0"/><path fill="#62727E" d="m26.715 0 11.96 11.96H28.006c-.71 0-1.291-.58-1.291-1.291zM2.438 17.033h27.548c.612 0 1.113.5 1.113 1.113v10.106c0 .613-.5 1.114-1.113 1.114H2.438c-.613 0-1.114-.501-1.114-1.114V18.146c0-.613.5-1.113 1.114-1.113"/><path fill="#fff" d="m17.845 20.062-1.884 3.136 1.884 3.136a.626.626 0 1 1-1.072.645l-1.542-2.566-1.541 2.566a.625.625 0 1 1-1.073-.645l1.884-3.136-1.884-3.136a.626.626 0 1 1 1.073-.645l1.541 2.566 1.542-2.566a.626.626 0 1 1 1.072.645m-7.325-.948H6.364a.626.626 0 1 0 0 1.251h1.452v6.292a.626.626 0 1 0 1.252 0v-6.292h1.452a.626.626 0 1 0 0-1.251m13.579 0h-4.156a.625.625 0 1 0 0 1.251h1.452v6.292a.626.626 0 1 0 1.251 0v-6.292H24.1a.626.626 0 1 0 0-1.251"/></svg>
